packages/kaspersky-hexa-ui-icons/src/iconsSVGs/24/DevicePhoneAndroidSolid.svg

<svg xmlns="http://www.w3.org/2000/svg" width="24" height="24" fill="none" viewBox="0 0 24 24"><path fill="#000" fill-rule="evenodd" d="M5 5c0-1.6568 1.3431-3 3-3h8c1.6569 0 3 1.3432 3 3v14c0 1.6569-1.3431 3-3 3H8c-1.6569 0-3-1.3431-3-3zm5 13c0-.5523.4477-1 1-1h2c.5523 0 1 .4477 1 1s-.4477 1-1 1h-2c-.5523 0-1-.4477-1-1"/></svg>

<svg width="24" height="24" viewBox="0 0 24 24" fill="none" xmlns="http://www.w3.org/2000/svg">
<path fill-rule="evenodd" clip-rule="evenodd" d="M5 5C5 3.34315 6.34315 2 8 2H16C17.6569 2 19 3.34315 19 5V19C19 20.6569 17.6569 22 16 22H8C6.34315 22 5 20.6569 5 19V5ZM10 18C10 17.4477 10.4477 17 11 17H13C13.5523 17 14 17.4477 14 18C14 18.5523 13.5523 19 13 19H11C10.4477 19 10 18.5523 10 18Z" fill="black"/>
</svg>
